X:1
T:Title
%%score { ( 1 3 4 ) | ( 2 5 6 ) }
L:1/8
Q:1/4=100
M:4/4
K:A
V:1 treble nm="Grand Piano"
V:3 treble 
V:4 treble 
V:2 bass 
V:5 bass 
V:6 bass 
V:1
 [CE]>[DF] [CE]>[B,D] [A,C]>[CE] [CA]>[EG] | [DF]>[EG] [FA]>[DF] [CE]4 | %2
w: Wm.~Edie~Marks * * * * * * *||
 [CE]>[DF] [CE]>[B,D] [A,C]>[CE] [CA]>[Ec] | [EB]>[FA] [EG]>[^DA] [EB]4 | %4
w: ||
 [Ec]>[Fd] [Ec]>[DB] [CA]>[CA] [B,G]>[CA] | B>A G>F [CE]4 | %6
w: ||
[M:35/32] [DF]>[EG][EA]>Bc>de-(3:2:4e3/2-e/4[Fd]3/4-[Fd]/8 |[M:7/8] c3/2-c/4 z/4 A3/2-A/4 z/4 A3- | %8
w: ||
[M:1/8] A/4 z/4 z/ |[M:4/4] (3:2:2[Ec]3 [Fd]3 z4 | %10
w: ||
 (5:4:5[FA]2 [FA]/ [EG]/-[EG]3/2[DF]/ E3- E/4 z/4 z/ | (3:2:2[Ec]3 [Fd]3 z4 | %12
w: ||
 (5:4:5[^Dc]2 [DB]/ [DB]/-[DB]3/2[Dc]/ [EB]4 | (5:4:5[Ec]2 [Fd]/ [Ec]/-[Ec]3/2[DB]/ z4 | %14
w: ||
 (5:4:5B2 A/ G/-G3/2F/ z4 |[M:35/32] z3/2 [EG]3/4 z z/4 (3:2:4B3/4-B/8c3/2-c/4-c z3/2 z/4 [Fd]3/4 | %16
w: ||
[M:15/8] c>BA-A/G/ [CA]2- [CA] z2 z6 |] %17
w: |
V:2
 [A,,A,]>[A,,A,] [A,,A,]>[A,,E,] [A,,E,]>[A,,A,] [A,,A,]>[A,,A,] | %1
 [D,A,]>[D,A,] [D,D]>[D,A,] [A,,A,]4 | %2
 [A,,A,]>[A,,A,] [A,,A,]>[A,,E,] [A,,E,]>[A,,A,] [A,,A,]>[A,,A,] | %3
 [B,,G,]>[B,,B,] [B,,B,]>[B,,A,] [E,G,]4 | %4
 [A,,A,]>[A,,A,] [A,,A,]>[A,,A,] [A,,A,]>[A,,A,] [A,,A,]>[A,,A,] | %5
 [D,F,D]>[D,F,D] [D,G,D]>[D,A,D] [A,,A,]4 | %6
[M:35/32] [D,A,]>[D,B,][C,A,]>[E,G,E][A,E]>[A,B,E][A,CE]-(3:2:4[A,CE]3/2-[A,CE]/4[D,D]3/4-[D,D]/8 | %7
[M:7/8] [A,E]3/2-[G,-A,D-E]/4[G,D]/4-[G,A,-C-D]/<[A,C]/- [A,C]3/4 z/4 [A,,A,]3 |[M:1/8] [A,,A,] | %9
[M:4/4] z4 (3:2:2[A,,A,]3 [C,A,]3 | %10
 (5:4:5[D,A,]2 [D,A,]/ [D,A,]/-[D,A,]3/2[D,A,]/ A,3- A,/4 z/4 z/ | (3:2:2[A,,A,]3 [A,,A,]3 z4 | %12
 (5:4:5[B,,A,]2 [B,,A,]/ [B,,A,]/-[B,,A,]3/2[B,,A,]/ [E,G,]4 | %13
 (5:4:5[A,,A,]2 [A,,A,]/ [A,,A,]/-[A,,A,]3/2[A,,A,]/ z4 | z8 | %15
[M:35/32] D,2 z4 [A,CE]2- [A,CE]/4 z/ | %16
[M:15/8] [E,A,E]>[E,G,D][E,A,C]-[E,A,C]/[E,B,D]/ [A,,A,]2- [A,,A,] z2 z6 |] %17
V:3
 x8 | x8 | x8 | x8 | x8 | x8 |[M:35/32] x35/4 |[M:7/8] z z/ B/-B/4 z/4 z/ z/ G/-G/4 z/4 z/ z2 | %8
[M:1/8] x |[M:4/4] z4 (3:2:2[Ec]3 [EB]3 | z4 (3:2:2C4 [CE]2 | z4 (3:2:2[Ec]3 [Ec]3 | x8 | %13
 z4 (5:4:5[CA]2 [CA]/ [B,G]/-[B,G]3/2[CA]/ | x8 | %15
[M:35/32] [DF]3/2-[DF]/4 z3/2 z/4 z2 z/ e2- e/4 z/ |[M:15/8] x15 |] %17
V:4
 x8 | x8 | x8 | x8 | x8 | x8 |[M:35/32] x35/4 |[M:7/8] z z z2 C3 |[M:1/8] [CE] |[M:4/4] x8 | x8 | %11
 x8 | x8 | x8 | z4 [CE]4- |[M:35/32] [CE]/4 z3/2 z/4 [EA]3/2-[EA]/4 z3/2 z/4 d3/4 z2 z/ | %16
[M:15/8] x15 |] %17
V:5
 x8 | x8 | x8 | x8 | x8 | x8 |[M:35/32] x35/4 |[M:7/8] E,>E,E,>[E,B,D]-[E,B,D]/4 z/4 z/ z2 | %8
[M:1/8] x |[M:4/4] (3:2:2[A,,A,]3 [A,,A,]3 z4 | z4 (3:2:2A,,4 [A,,A,]2 | %11
 z4 (3:2:2[A,,A,]3 [A,,A,]3 | x8 | z4 (5:4:5[A,,A,]2 [A,,A,]/ [A,,A,]/-[A,,A,]3/2[A,,A,]/ | %14
 (5:4:5[D,F,D]2 [D,F,D]/ [D,G,D]/-[D,G,D]3/2[D,A,D]/ A,4 | %15
[M:35/32] A,3/2-[D,-A,B,-]/4[D,B,]/ z z/4 (3:2:4[E,G,E]3/4-[E,G,E]/8[A,E]3/2-[A,E]/4-[A,E]/4.[A,E] z3/2 [D,D]3/4 | %16
[M:15/8] x15 |] %17
V:6
 x8 | x8 | x8 | x8 | x8 | x8 |[M:35/32] x35/4 |[M:7/8] x7 |[M:1/8] x |[M:4/4] x8 | x8 | x8 | x8 | %13
 x8 | z4 A,,4- |[M:35/32] A,,/4 z3/2 z/4 [C,A,]3/2-[C,A,]/4 z3/2 z/4 B,3/4 z2 z/ |[M:15/8] x15 |] %17

